src/assets/cart.svg

<svg width="40" height="40" viewBox="0 0 40 40" fill="none" xmlns="http://www.w3.org/2000/svg">
<rect width="40" height="40" rx="8" fill="#B1C3FF"/>
<mask id="path-2-inside-1_1024_6413" fill="white">
<path d="M31 26.1492L30.6737 23.757L28.9931 23.991L27.0862 14.3756C27.0247 14.0653 26.8445 13.7916 26.5843 13.6133C26.324 13.4351 26.0046 13.3665 25.6946 13.4224L22.4653 14.007L21.7878 10.2281C21.7605 10.0716 21.7026 9.92202 21.6174 9.78812C21.5322 9.65421 21.4214 9.5386 21.2914 9.44798C21.1615 9.35736 21.015 9.29352 20.8603 9.26016C20.7056 9.22679 20.5459 9.22457 20.3904 9.25361L14.7493 10.2745C14.6087 9.76007 14.5449 7.60276 12.9736 8.06428L8.84917 9.29662C8.54615 9.39033 8.29219 9.60043 8.14251 9.88125C7.99283 10.1621 7.95953 10.4909 8.04985 10.7963C8.14017 11.1016 8.3468 11.3588 8.62483 11.5119C8.90286 11.665 9.2298 11.7017 9.53458 11.6139L12.3915 10.7597C14.1429 19.6709 15.0169 24.1164 15.0004 24.0349C14.1803 24.3828 13.5172 25.0231 13.1386 25.8325C12.7599 26.642 12.6924 27.5635 12.9491 28.4199C13.2058 29.2764 13.7685 30.0072 14.529 30.472C15.2896 30.9368 16.1943 31.1027 17.0692 30.9379L17.0812 30.9356C17.8482 30.781 18.5446 30.3809 19.0661 29.7951C19.5876 29.2093 19.9061 28.4695 19.9739 27.6866L31 26.1492ZM26.6058 24.3181L19.3817 25.3174C18.9151 24.6313 18.2276 24.1275 17.4348 23.891L16.1908 17.5997L24.9589 16.0098L26.6058 24.3181ZM19.6342 11.8461L20.098 14.4335L15.7226 15.2285L15.215 12.6459L19.6342 11.8461ZM16.6292 28.5622C16.3151 28.6261 15.9886 28.5619 15.7215 28.3839C15.4545 28.2059 15.2688 27.9285 15.2052 27.6129C15.1417 27.2973 15.2055 26.9692 15.3827 26.7009C15.5599 26.4326 15.8359 26.246 16.1501 26.1821C16.3056 26.1505 16.4658 26.15 16.6216 26.1806C16.7773 26.2112 16.9255 26.2723 17.0577 26.3605C17.19 26.4486 17.3036 26.5621 17.3922 26.6944C17.4808 26.8267 17.5426 26.9752 17.5741 27.1315C17.6055 27.2877 17.6061 27.4487 17.5756 27.6052C17.5451 27.7617 17.4843 27.9106 17.3966 28.0435C17.3088 28.1763 17.1959 28.2905 17.0643 28.3795C16.9326 28.4685 16.7848 28.5306 16.6292 28.5622Z"/>
</mask>
<path d="M31 26.1492L30.6737 23.757L28.9931 23.991L27.0862 14.3756C27.0247 14.0653 26.8445 13.7916 26.5843 13.6133C26.324 13.4351 26.0046 13.3665 25.6946 13.4224L22.4653 14.007L21.7878 10.2281C21.7605 10.0716 21.7026 9.92202 21.6174 9.78812C21.5322 9.65421 21.4214 9.5386 21.2914 9.44798C21.1615 9.35736 21.015 9.29352 20.8603 9.26016C20.7056 9.22679 20.5459 9.22457 20.3904 9.25361L14.7493 10.2745C14.6087 9.76007 14.5449 7.60276 12.9736 8.06428L8.84917 9.29662C8.54615 9.39033 8.29219 9.60043 8.14251 9.88125C7.99283 10.1621 7.95953 10.4909 8.04985 10.7963C8.14017 11.1016 8.3468 11.3588 8.62483 11.5119C8.90286 11.665 9.2298 11.7017 9.53458 11.6139L12.3915 10.7597C14.1429 19.6709 15.0169 24.1164 15.0004 24.0349C14.1803 24.3828 13.5172 25.0231 13.1386 25.8325C12.7599 26.642 12.6924 27.5635 12.9491 28.4199C13.2058 29.2764 13.7685 30.0072 14.529 30.472C15.2896 30.9368 16.1943 31.1027 17.0692 30.9379L17.0812 30.9356C17.8482 30.781 18.5446 30.3809 19.0661 29.7951C19.5876 29.2093 19.9061 28.4695 19.9739 27.6866L31 26.1492ZM26.6058 24.3181L19.3817 25.3174C18.9151 24.6313 18.2276 24.1275 17.4348 23.891L16.1908 17.5997L24.9589 16.0098L26.6058 24.3181ZM19.6342 11.8461L20.098 14.4335L15.7226 15.2285L15.215 12.6459L19.6342 11.8461ZM16.6292 28.5622C16.3151 28.6261 15.9886 28.5619 15.7215 28.3839C15.4545 28.2059 15.2688 27.9285 15.2052 27.6129C15.1417 27.2973 15.2055 26.9692 15.3827 26.7009C15.5599 26.4326 15.8359 26.246 16.1501 26.1821C16.3056 26.1505 16.4658 26.15 16.6216 26.1806C16.7773 26.2112 16.9255 26.2723 17.0577 26.3605C17.19 26.4486 17.3036 26.5621 17.3922 26.6944C17.4808 26.8267 17.5426 26.9752 17.5741 27.1315C17.6055 27.2877 17.6061 27.4487 17.5756 27.6052C17.5451 27.7617 17.4843 27.9106 17.3966 28.0435C17.3088 28.1763 17.1959 28.2905 17.0643 28.3795C16.9326 28.4685 16.7848 28.5306 16.6292 28.5622Z" fill="white"/>
<path d="M31 26.1492L31.0414 26.4463L31.3377 26.405L31.2972 26.1086L31 26.1492ZM30.6737 23.757L30.9709 23.7164L30.9302 23.4184L30.6323 23.4598L30.6737 23.757ZM28.9931 23.991L28.6988 24.0494L28.7539 24.3272L29.0345 24.2881L28.9931 23.991ZM27.0862 14.3756L26.7919 14.434L26.792 14.434L27.0862 14.3756ZM25.6946 13.4224L25.6414 13.1272L25.6412 13.1272L25.6946 13.4224ZM22.4653 14.007L22.17 14.06L22.223 14.3558L22.5187 14.3022L22.4653 14.007ZM21.7878 10.2281L21.4923 10.2797L21.4925 10.2811L21.7878 10.2281ZM20.3904 9.25361L20.4438 9.54882L20.4455 9.54851L20.3904 9.25361ZM14.7493 10.2745L14.4599 10.3536L14.5323 10.6187L14.8027 10.5697L14.7493 10.2745ZM12.9736 8.06428L12.8891 7.77644L12.8877 7.77684L12.9736 8.06428ZM8.84917 9.29662L8.76329 9.00916L8.76054 9.01001L8.84917 9.29662ZM9.53458 11.6139L9.61761 11.9022L9.62052 11.9013L9.53458 11.6139ZM12.3915 10.7597L12.6859 10.7019L12.6222 10.3776L12.3056 10.4723L12.3915 10.7597ZM15.0004 24.0349L15.2944 23.9755L15.2216 23.6151L14.8832 23.7587L15.0004 24.0349ZM17.0692 30.9379L17.1248 31.2327L17.1255 31.2325L17.0692 30.9379ZM17.0812 30.9356L17.1375 31.2303L17.1405 31.2297L17.0812 30.9356ZM19.9739 27.6866L19.9325 27.3894L19.6956 27.4225L19.675 27.6607L19.9739 27.6866ZM26.6058 24.3181L26.6469 24.6152L26.9619 24.5716L26.9001 24.2597L26.6058 24.3181ZM19.3817 25.3174L19.1336 25.4861L19.2383 25.6401L19.4228 25.6146L19.3817 25.3174ZM17.4348 23.891L17.1405 23.9492L17.1756 24.1267L17.349 24.1784L17.4348 23.891ZM16.1908 17.5997L16.1373 17.3045L15.8374 17.3588L15.8965 17.6578L16.1908 17.5997ZM24.9589 16.0098L25.2532 15.9515L25.1958 15.662L24.9054 15.7146L24.9589 16.0098ZM19.6342 11.8461L19.9295 11.7932L19.8765 11.4974L19.5808 11.5509L19.6342 11.8461ZM20.098 14.4335L20.1516 14.7287L20.4461 14.6752L20.3933 14.3806L20.098 14.4335ZM15.7226 15.2285L15.4282 15.2863L15.4852 15.5765L15.7762 15.5237L15.7226 15.2285ZM15.215 12.6459L15.1616 12.3507L14.8619 12.4049L14.9206 12.7038L15.215 12.6459ZM16.6292 28.5622L16.689 28.8562L16.6292 28.5622ZM16.1501 26.1821L16.0903 25.8881L16.1501 26.1821ZM31.2972 26.1086L30.9709 23.7164L30.3764 23.7975L30.7028 26.1897L31.2972 26.1086ZM30.6323 23.4598L28.9517 23.6939L29.0345 24.2881L30.715 24.0541L30.6323 23.4598ZM29.2874 23.9326L27.3805 14.3173L26.792 14.434L28.6988 24.0494L29.2874 23.9326ZM27.3805 14.3173C27.3038 13.9303 27.079 13.5886 26.7538 13.3658L26.4147 13.8608C26.61 13.9946 26.7456 14.2003 26.7919 14.434L27.3805 14.3173ZM26.7538 13.3658C26.4286 13.1431 26.0292 13.0573 25.6414 13.1272L25.7478 13.7176C25.9801 13.6758 26.2195 13.7271 26.4147 13.8608L26.7538 13.3658ZM25.6412 13.1272L22.4118 13.7118L22.5187 14.3022L25.7481 13.7176L25.6412 13.1272ZM22.7606 13.9541L22.0831 10.1752L21.4925 10.2811L22.17 14.06L22.7606 13.9541ZM22.0833 10.1766C22.0492 9.98113 21.9769 9.79437 21.8705 9.62707L21.3642 9.94916C21.4282 10.0497 21.4717 10.162 21.4923 10.2797L22.0833 10.1766ZM21.8705 9.62707C21.764 9.45978 21.6256 9.31525 21.463 9.20191L21.1198 9.69405C21.2172 9.76195 21.3003 9.84864 21.3642 9.94916L21.8705 9.62707ZM21.463 9.20191C21.3005 9.08856 21.1172 9.00867 20.9236 8.9669L20.797 9.55341C20.9128 9.57837 21.0225 9.62615 21.1198 9.69405L21.463 9.20191ZM20.9236 8.9669C20.73 8.92514 20.53 8.92235 20.3354 8.95871L20.4455 9.54851C20.5618 9.52678 20.6813 9.52845 20.797 9.55341L20.9236 8.9669ZM20.337 8.9584L14.6959 9.97931L14.8027 10.5697L20.4438 9.54881L20.337 8.9584ZM15.0387 10.1954C15.0257 10.1478 15.0116 10.0726 14.9928 9.96257C14.9751 9.85824 14.9541 9.72886 14.9283 9.59177C14.8768 9.31792 14.8019 8.98959 14.6745 8.68697C14.5481 8.38698 14.3573 8.0811 14.0549 7.88927C13.7399 7.68938 13.3489 7.64139 12.8891 7.77644L13.0582 8.35212C13.384 8.25642 13.5902 8.30503 13.7335 8.3959C13.8894 8.49483 14.0179 8.6739 14.1215 8.91986C14.224 9.16318 14.2896 9.44179 14.3387 9.7027C14.3632 9.83299 14.3826 9.95294 14.4013 10.0633C14.4192 10.1679 14.4378 10.2726 14.4599 10.3536L15.0387 10.1954ZM12.8877 7.77684L8.76329 9.00918L8.93506 9.58406L13.0595 8.35173L12.8877 7.77684ZM8.76054 9.01001C8.38165 9.12718 8.06453 9.38975 7.87777 9.74014L8.40725 10.0224C8.51985 9.81111 8.71065 9.65347 8.9378 9.58323L8.76054 9.01001ZM7.87777 9.74014C7.69104 10.0905 7.64954 10.5006 7.76217 10.8813L8.33753 10.7112C8.26952 10.4812 8.29463 10.2337 8.40725 10.0224L7.87777 9.74014ZM7.76217 10.8813C7.87481 11.2622 8.13265 11.5834 8.48012 11.7747L8.76955 11.2491C8.56096 11.1343 8.40553 10.9411 8.33753 10.7112L7.76217 10.8813ZM8.48012 11.7747C8.82764 11.9661 9.23647 12.0119 9.61761 11.9022L9.45155 11.3256C9.22313 11.3914 8.97808 11.364 8.76955 11.2491L8.48012 11.7747ZM9.62052 11.9013L12.4774 11.0471L12.3056 10.4723L9.44864 11.3265L9.62052 11.9013ZM12.0971 10.8176C12.9728 15.2732 13.6292 18.6124 14.0645 20.8274C14.2822 21.935 14.4446 22.7615 14.5516 23.306C14.6051 23.5783 14.6447 23.78 14.6705 23.9111C14.6833 23.9767 14.6927 24.0246 14.6986 24.0548C14.7016 24.0699 14.7036 24.0804 14.7048 24.0865C14.7051 24.088 14.7054 24.0892 14.7055 24.0901C14.7057 24.0911 14.7058 24.0913 14.7057 24.0912C14.7057 24.0911 14.7057 24.0908 14.7056 24.0906C14.7056 24.0903 14.7054 24.0893 14.7053 24.0887C14.705 24.0873 14.704 24.0808 14.7032 24.0757C14.9225 23.7463 15.286 23.9435 15.2925 23.9668C15.294 23.973 15.2953 23.9797 15.2944 23.9755L14.7063 24.0943C14.7064 24.0947 14.7066 24.0954 14.7067 24.0962C14.7068 24.0966 14.707 24.0974 14.7071 24.098C14.7073 24.099 14.7081 24.1025 14.7087 24.105C14.7152 24.1284 15.0787 24.3256 15.298 23.9962C15.2972 23.9911 15.2962 23.9845 15.2959 23.983C15.2956 23.9812 15.2953 23.9797 15.2953 23.9795C15.2949 23.9777 15.2944 23.9749 15.2938 23.972C15.2925 23.9655 15.2904 23.9546 15.2874 23.9395C15.2815 23.9091 15.2721 23.8612 15.2592 23.7956C15.2335 23.6644 15.1938 23.4626 15.1404 23.1903C15.0334 22.6458 14.8709 21.8193 14.6533 20.7117C14.2179 18.4966 13.5616 15.1575 12.6859 10.7019L12.0971 10.8176ZM14.8832 23.7587C13.9947 24.1357 13.2767 24.8291 12.8668 25.7054L13.4103 25.9596C13.7577 25.217 14.3659 24.63 15.1176 24.311L14.8832 23.7587ZM12.8668 25.7054C12.4569 26.5817 12.3839 27.5791 12.6617 28.5061L13.2365 28.3338C13.0009 27.5479 13.0629 26.7023 13.4103 25.9596L12.8668 25.7054ZM12.6617 28.5061C12.9395 29.4331 13.5487 30.2245 14.3726 30.728L14.6855 30.2161C13.9882 29.7899 13.472 29.1197 13.2365 28.3338L12.6617 28.5061ZM14.3726 30.728C15.1965 31.2315 16.1767 31.4113 17.1248 31.2327L17.0137 30.6431C16.2119 30.7941 15.3827 30.6421 14.6855 30.2161L14.3726 30.728ZM17.1255 31.2325L17.1375 31.2302L17.025 30.6409L17.0129 30.6432L17.1255 31.2325ZM17.1405 31.2297C17.9713 31.0622 18.7255 30.6288 19.2902 29.9946L18.842 29.5956C18.3636 30.1329 17.725 30.4998 17.022 30.6415L17.1405 31.2297ZM19.2902 29.9946C19.8548 29.3604 20.1994 28.5597 20.2728 27.7124L19.675 27.6607C19.6128 28.3794 19.3205 29.0583 18.842 29.5956L19.2902 29.9946ZM20.0153 27.9837L31.0414 26.4463L30.9586 25.852L19.9325 27.3894L20.0153 27.9837ZM26.5647 24.0209L19.3406 25.0203L19.4228 25.6146L26.6469 24.6152L26.5647 24.0209ZM19.6298 25.1488C19.1245 24.4057 18.3798 23.8599 17.5205 23.6035L17.349 24.1784C18.0755 24.3952 18.7058 24.8569 19.1336 25.4861L19.6298 25.1488ZM17.7291 23.8328L16.4851 17.5415L15.8965 17.6578L17.1405 23.9492L17.7291 23.8328ZM16.2443 17.8948L25.0125 16.305L24.9054 15.7146L16.1373 17.3045L16.2443 17.8948ZM24.6647 16.0682L26.3116 24.3764L26.9001 24.2597L25.2532 15.9515L24.6647 16.0682ZM19.3389 11.899L19.8027 14.4865L20.3933 14.3806L19.9295 11.7932L19.3389 11.899ZM20.0444 14.1384L15.6689 14.9333L15.7762 15.5237L20.1516 14.7287L20.0444 14.1384ZM16.0169 15.1706L15.5094 12.5881L14.9206 12.7038L15.4282 15.2863L16.0169 15.1706ZM15.2684 12.9411L19.6876 12.1413L19.5808 11.5509L15.1616 12.3507L15.2684 12.9411ZM16.5695 28.2682C16.3338 28.3162 16.0886 28.2681 15.888 28.1343L15.5551 28.6335C15.8886 28.8558 16.2965 28.936 16.689 28.8562L16.5695 28.2682ZM15.888 28.1343C15.6872 28.0005 15.5472 27.7917 15.4993 27.5537L14.9111 27.6721C14.9903 28.0653 15.2218 28.4113 15.5551 28.6335L15.888 28.1343ZM15.4993 27.5537C15.4514 27.3157 15.4996 27.0683 15.6331 26.8662L15.1324 26.5356C14.9115 26.8701 14.832 27.2789 14.9111 27.6721L15.4993 27.5537ZM15.6331 26.8662C15.7665 26.6642 15.974 26.524 16.2098 26.4761L16.0903 25.8881C15.6978 25.9679 15.3533 26.201 15.1324 26.5356L15.6331 26.8662ZM16.2098 26.4761C16.3266 26.4524 16.4468 26.452 16.5637 26.475L16.6794 25.8862C16.4848 25.848 16.2846 25.8486 16.0903 25.8881L16.2098 26.4761ZM16.5637 26.475C16.6806 26.4979 16.792 26.5438 16.8913 26.6101L17.2242 26.1109C17.0591 26.0008 16.874 25.9245 16.6794 25.8862L16.5637 26.475ZM16.8913 26.6101C16.9907 26.6763 17.0762 26.7617 17.143 26.8613L17.6415 26.5274C17.531 26.3625 17.3892 26.2209 17.2242 26.1109L16.8913 26.6101ZM17.143 26.8613C17.2097 26.9609 17.2562 27.0728 17.28 27.1907L17.8682 27.0722C17.829 26.8775 17.752 26.6924 17.6415 26.5274L17.143 26.8613ZM17.28 27.1907C17.3037 27.3085 17.3041 27.4299 17.2811 27.5479L17.8701 27.6625C17.908 27.4675 17.9074 27.267 17.8682 27.0722L17.28 27.1907ZM17.2811 27.5479C17.2582 27.6659 17.2123 27.7781 17.1462 27.8781L17.6469 28.2088C17.7563 28.0431 17.8321 27.8575 17.8701 27.6625L17.2811 27.5479ZM17.1462 27.8781C17.0802 27.9782 16.9952 28.0641 16.8962 28.131L17.2323 28.6281C17.3966 28.5169 17.5375 28.3744 17.6469 28.2088L17.1462 27.8781ZM16.8962 28.131C16.7973 28.1979 16.6862 28.2445 16.5695 28.2682L16.689 28.8562C16.8833 28.8167 17.0679 28.7392 17.2323 28.6281L16.8962 28.131Z" fill="#B1C3FF" mask="url(#path-2-inside-1_1024_6413)"/>
</svg>

<svg fill="none" xmlns="http://www.w3.org/2000/svg" viewBox="0 0 40 40"><rect width="40" height="40" rx="8" fill="#B1C3FF"/><mask id="a" fill="#fff"><path d="m31 26.15-.326-2.393-1.68.234-1.908-9.615a1.209 1.209 0 0 0-.502-.763 1.198 1.198 0 0 0-.89-.19l-3.229.584-.677-3.779a1.206 1.206 0 0 0-.928-.968 1.191 1.191 0 0 0-.47-.006l-5.64 1.02c-.141-.514-.205-2.671-1.776-2.21L8.849 9.297a1.214 1.214 0 0 0-.224 2.215c.278.153.605.19.91.102l2.857-.854c1.75 8.91 2.625 13.356 2.608 13.275a3.615 3.615 0 0 0-1.861 1.797 3.64 3.64 0 0 0-.19 2.588c.257.856.82 1.587 1.58 2.052.76.465 1.665.63 2.54.466l.012-.002a3.614 3.614 0 0 0 1.985-1.14c.522-.587.84-1.326.908-2.11L31 26.15Zm-4.394-1.832-7.224 1a3.6 3.6 0 0 0-1.947-1.427L16.19 17.6l8.768-1.59 1.647 8.308Zm-6.972-12.472.464 2.588-4.375.795-.508-2.583 4.42-.8ZM16.63 28.562c-.314.064-.64 0-.908-.178a1.215 1.215 0 0 1-.338-1.683 1.209 1.209 0 0 1 1.675-.34 1.21 1.21 0 0 1 .516.77 1.22 1.22 0 0 1-.51 1.248c-.131.09-.28.152-.435.183Z"/></mask><path d="m31 26.15-.326-2.393-1.68.234-1.908-9.615a1.209 1.209 0 0 0-.502-.763 1.198 1.198 0 0 0-.89-.19l-3.229.584-.677-3.779a1.206 1.206 0 0 0-.928-.968 1.191 1.191 0 0 0-.47-.006l-5.64 1.02c-.141-.514-.205-2.671-1.776-2.21L8.849 9.297a1.214 1.214 0 0 0-.224 2.215c.278.153.605.19.91.102l2.857-.854c1.75 8.91 2.625 13.356 2.608 13.275a3.615 3.615 0 0 0-1.861 1.797 3.64 3.64 0 0 0-.19 2.588c.257.856.82 1.587 1.58 2.052.76.465 1.665.63 2.54.466l.012-.002a3.614 3.614 0 0 0 1.985-1.14c.522-.587.84-1.326.908-2.11L31 26.15Zm-4.394-1.832-7.224 1a3.6 3.6 0 0 0-1.947-1.427L16.19 17.6l8.768-1.59 1.647 8.308Zm-6.972-12.472.464 2.588-4.375.795-.508-2.583 4.42-.8ZM16.63 28.562c-.314.064-.64 0-.908-.178a1.215 1.215 0 0 1-.338-1.683 1.209 1.209 0 0 1 1.675-.34 1.21 1.21 0 0 1 .516.77 1.22 1.22 0 0 1-.51 1.248c-.131.09-.28.152-.435.183Z" fill="#fff"/><path d="m31 26.15.041.296.297-.041-.04-.296-.298.04Zm-.326-2.393.297-.04-.04-.299-.299.042.042.297Zm-1.68.234-.295.058.055.278.28-.039-.04-.297Zm-1.908-9.615-.294.058.294-.058Zm-1.391-.954-.054-.295.054.295Zm-3.23.585-.295.053.053.296.296-.054-.054-.295Zm-.677-3.779-.296.052v.001l.296-.053Zm-1.398-.974.054.295h.002l-.056-.295Zm-5.64 1.02-.29.08.072.265.27-.05-.053-.295Zm-1.776-2.21-.085-.288h-.001l.086.288ZM8.849 9.297l-.086-.288-.002.001.088.287Zm.686 2.317.083.288h.003l-.086-.288Zm2.857-.854.294-.058-.064-.324-.316.094.086.288ZM15 24.035l.294-.06-.072-.36-.339.144.117.276Zm2.07 6.903.055.295-.056-.295Zm.011-.002.056.294h.003l-.059-.294Zm2.893-3.25-.041-.297-.237.034-.021.238.299.026Zm6.632-3.368.04.297.316-.043-.062-.312-.294.058Zm-7.224 1-.248.168.104.154.185-.025-.041-.298Zm-1.947-1.427-.294.058.035.178.173.051.086-.287ZM16.19 17.6l-.054-.296-.3.055.06.299.294-.058Zm8.768-1.59.294-.059-.057-.289-.29.053.053.295Zm-5.325-4.164.296-.053-.053-.296-.296.054.053.295Zm.464 2.588.054.295.294-.054-.053-.294-.295.053Zm-4.375.795-.295.057.057.29.291-.052-.053-.295Zm-.508-2.583-.053-.295-.3.054.059.299.294-.058Zm1.414 15.916.06.294-.06-.294Zm-.479-2.38-.06-.294.06.294Zm15.147-.073-.326-2.393-.595.081.327 2.393.594-.081Zm-.665-2.65-1.68.235.082.594 1.681-.234-.083-.594Zm-1.345.474-1.906-9.616-.589.117 1.907 9.615.588-.116Zm-1.906-9.616a1.509 1.509 0 0 0-.627-.951l-.34.495c.196.134.332.34.378.573l.588-.117Zm-.627-.951a1.498 1.498 0 0 0-1.113-.239l.107.59a.898.898 0 0 1 .667.144l.339-.495Zm-1.113-.239-3.23.585.108.59 3.23-.584-.108-.59Zm-2.88.827-.678-3.779-.59.106.677 3.779.59-.106Zm-.678-3.777a1.506 1.506 0 0 0-.212-.55l-.507.322c.064.1.108.213.128.33l.591-.102Zm-.212-.55a1.5 1.5 0 0 0-.408-.425l-.343.492c.097.068.18.155.244.255l.506-.322Zm-.408-.425a1.493 1.493 0 0 0-.54-.235l-.126.586a.893.893 0 0 1 .323.141l.343-.492Zm-.54-.235a1.491 1.491 0 0 0-.588-.008l.11.59a.89.89 0 0 1 .352.004l.127-.586Zm-.586-.009L14.696 9.98l.107.59 5.64-1.02-.106-.59Zm-5.298 1.237a2.827 2.827 0 0 1-.046-.232c-.018-.105-.039-.234-.065-.371a4.513 4.513 0 0 0-.254-.905c-.126-.3-.317-.606-.62-.798-.314-.2-.705-.248-1.165-.113l.17.576c.325-.096.531-.047.675.044.155.099.284.278.387.524.103.243.169.522.218.783.024.13.044.25.062.36.018.105.037.21.059.29l.579-.158Zm-2.151-2.418L8.763 9.009l.172.575 4.124-1.232-.171-.575ZM8.76 9.01c-.38.117-.696.38-.883.73l.53.282a.904.904 0 0 1 .53-.439L8.76 9.01Zm-.883.73c-.187.35-.228.76-.116 1.141l.576-.17a.914.914 0 0 1 .07-.689l-.53-.282Zm-.116 1.141c.113.381.37.702.718.894l.29-.526a.907.907 0 0 1-.432-.538l-.576.17Zm.718.894c.348.191.756.237 1.138.127l-.166-.576a.898.898 0 0 1-.682-.077l-.29.526Zm1.14.126 2.857-.854-.171-.575-2.857.854.172.575Zm2.477-1.083 1.968 10.01.487 2.478.119.605.028.144.006.032v.004-.002l-.002-.013c.22-.33.583-.133.59-.11l.001.01-.588.118v.002l.001.002a.3.3 0 0 0 .002.007c.006.023.37.22.589-.109l-.002-.013v-.003l-.002-.008-.007-.033-.028-.143-.119-.606-.487-2.478-1.967-10.01-.589.116Zm2.786 12.94a3.916 3.916 0 0 0-2.016 1.947l.543.255a3.316 3.316 0 0 1 1.708-1.649l-.235-.552Zm-2.016 1.947a3.941 3.941 0 0 0-.205 2.801l.574-.172a3.34 3.34 0 0 1 .174-2.374l-.543-.255Zm-.205 2.801a3.923 3.923 0 0 0 1.71 2.222l.313-.512a3.323 3.323 0 0 1-1.449-1.882l-.574.172Zm1.71 2.222a3.894 3.894 0 0 0 2.753.505l-.111-.59a3.295 3.295 0 0 1-2.329-.427l-.312.512Zm2.753.505.012-.003-.112-.59-.012.003.112.59Zm.015-.003c.831-.168 1.585-.601 2.15-1.235l-.448-.4a3.314 3.314 0 0 1-1.82 1.047l.119.588Zm2.15-1.235c.565-.635.91-1.435.983-2.283l-.598-.051a3.343 3.343 0 0 1-.833 1.935l.448.399Zm.725-2.011 11.026-1.538-.082-.594-11.026 1.537.082.595Zm6.55-3.963-7.224 1 .082.594 7.224-1-.082-.594Zm-6.935 1.128a3.9 3.9 0 0 0-2.11-1.546l-.171.575a3.3 3.3 0 0 1 1.785 1.308l.496-.337Zm-1.9-1.316-1.245-6.291-.588.116 1.243 6.291.59-.116Zm-1.486-5.938 8.768-1.59-.107-.59-8.768 1.59.107.59Zm8.42-1.827 1.648 8.308.588-.116-1.647-8.309-.588.117ZM19.34 11.9l.464 2.588.59-.106-.463-2.588-.591.106Zm.705 2.24-4.375.794.107.59 4.376-.794-.108-.59Zm-4.027 1.032-.508-2.583-.588.116.507 2.582.589-.115Zm-.749-2.23 4.42-.8-.107-.59-4.42.8.107.59Zm1.302 15.327a.903.903 0 0 1-.682-.134l-.333.5c.334.222.742.302 1.134.222l-.12-.588Zm-.682-.134a.914.914 0 0 1-.389-.58l-.588.118c.08.393.31.74.644.962l.333-.5Zm-.389-.58a.919.919 0 0 1 .134-.688l-.5-.33c-.221.334-.301.743-.222 1.136l.588-.118Zm.134-.688a.908.908 0 0 1 .577-.39l-.12-.588c-.392.08-.737.313-.958.648l.501.33Zm.577-.39a.903.903 0 0 1 .354-.001l.115-.589a1.503 1.503 0 0 0-.589.002l.12.588Zm.354-.001a.903.903 0 0 1 .327.135l.333-.5a1.506 1.506 0 0 0-.545-.224l-.115.589Zm.327.135c.1.066.185.152.252.251l.498-.334a1.512 1.512 0 0 0-.417-.416l-.333.5Zm.252.251c.067.1.113.212.137.33l.588-.119a1.517 1.517 0 0 0-.226-.545l-.499.334Zm.137.33a.92.92 0 0 1 .001.357l.59.115a1.521 1.521 0 0 0-.003-.59l-.588.118Zm.001.357a.915.915 0 0 1-.135.33l.5.33c.11-.165.186-.35.224-.545l-.589-.115Zm-.135.33a.91.91 0 0 1-.25.253l.336.497c.165-.111.306-.254.415-.42l-.5-.33Zm-.25.253a.905.905 0 0 1-.326.137l.119.588c.194-.04.379-.117.543-.228l-.336-.497Z" fill="#B1C3FF" mask="url(#a)"/></svg>
